!!!SOCIAL_FUNCTION:	ceremonial songs
!!!PDT:	1909
!!!OTL: No_62_Initiation_Song.krn
!!!REG: Great_Lakes
!!!LANG: Non-Tone
!!!LING_GROUP: Algonquin
**kern
*staff1
*clefF4
*k[f#c#g#d#]
*M3/4
16e\LL
16e\J
8e\
16d#\L
16d#\JJ
=1
4.d#\
16c#\LL
16c#\JJ
8c#\L
16G#\L
16G#\JJ
=2
4.G#\
16d#\LL
16d#\JJ
8d#\L
16c#\L
16c#\JJ
=3
4.c#\
16A#\LL
16A#\JJ
8c#\L
16A#\L
16A#\JJ
=4||
*M2/4
8c#\L
16A\L
16A\JJ
8A\L
16G#\L
16G#\JJ
=5||
*M3/4
4.G#\
16c#\LL
16c#\JJ
8c#\L
16G#\L
16G#\JJ
=6
4.F#\
16G#\LL
16G#\JJ
16.G#\LL
32G#\K
(16F#\
16D#\JJ)
=7||
*k[f#c#g#d#a#e#b#]
4.D#\
16C#/LL
16C#/JJ
8C#/L
16AA#/L
16AA#/JJ
=8||
*M2/4
8C#/L
16AA#/L
16AA#/JJ
8AA#/L
16AA#/L
16AA#/JJ
=9
2AA#/
==
*-
